resources/haticons/SVG/wysiwyg.svg

<!-- Generated by IcoMoon.io -->
<svg version="1.1" xmlns="http://www.w3.org/2000/svg" width="24" height="24" viewBox="0 0 24 24">
<title>wysiwyg</title>
<path d="M18.984 3h-13.969q-0.844 0-1.43 0.586t-0.586 1.43v13.969q0 0.844 0.586 1.43t1.43 0.586h13.969q0.844 0 1.43-0.586t0.586-1.43v-13.969q0-0.844-0.586-1.43t-1.43-0.586zM18.984 18.984h-13.969v-12h13.969v12zM17.016 12h-10.031v-2.016h10.031v2.016zM12.984 15.984h-6v-1.969h6v1.969z"></path>
</svg>

<svg xmlns="http://www.w3.org/2000/svg" width="24" height="24"><path d="M18.984 3H5.015q-.844 0-1.43.586t-.586 1.43v13.969q0 .844.586 1.43t1.43.586h13.969q.844 0 1.43-.586t.586-1.43V5.016q0-.844-.586-1.43T18.984 3zm0 15.984H5.015v-12h13.969v12zM17.016 12H6.985V9.984h10.031V12zm-4.032 3.984h-6v-1.969h6v1.969z"/></svg>
